X: 1
T: Popcorn Behavior
C: Jay Ungar
R: reel
Z: 2020 John Chambers <jc:trillian.mit.edu>
S: https://www.facebook.com/groups/Fiddletuneoftheday/ 2020-09-30
S: https://www.facebook.com/groups/Fiddletuneoftheday/photos/
N: Any of the 3-note pickups may be 3 8th notes or a triplet.
M: C|
L: 1/8
K: Am
(3e^f^g |\
"Am"a2ef ecAc | "E"BABc BEE^G | "Am"AEAc "F"AFAc | "Dm"BABc "E"Be^f^g |
"Am"a2ef ecAc | "E"BABc BEEE | "Dm"DFAc dcAF | "E"ECDB, "Am"A,2 :|
|: (3B,CD |\
"Am"EA,A,E "Dm"FA,A,F | "Am"EA,A,E "E"D^G,G,D | "Am"A,B,CD "F"ECFA | "C"GECD "E"EFED |
"Am"EA,A,E "F"FA,A,F | "D" ^FA,A,F "F"=FA,A,F | "Dm"DFAc dcAF | "E"ECDB, "Am"A,2 :|
